public/images/jobs/founded-icon.svg

<svg height="64" viewBox="0 0 74 64" width="74" xmlns="http://www.w3.org/2000/svg"><path d="m73.4569585 60.0656443-11.8375034-17.8552596c-.3874033-.5850189-1.0002732-.9829708-1.6922992-1.0988525s-1.4011042.0607062-1.9579563.4876069l-8.4971752 6.5170837-12.3368308-17.6572505c-.1038866-.1410422-.2221825-.2708792-.3529728-.3874092v-11.2693032c1.0570801.3389843 2.1613828.5075358 3.2714555.4993274 5.165456 0 10.330912-3.3058918 15.496368-3.3058918 1.5084254-.0152825 3.0016705.3021791 4.3734195.929782.1961548.0955645.4103675.148384.6284638.1549637.1971573.0125366.3894235-.0646797.5231436-.2101002.1337201-.1454206.1945756-.3434742.1655838-.5388909 0-4.4308134 0-8.85875707 0-13.28383105-.0470147-.8624892-.530622-1.64145402-1.2827549-2.06618241-1.3770387-.60419876-2.8701205-.89811249-4.3734194-.86090933-5.165456 0-10.330912 3.30589185-15.496368 3.30589185-1.1100621.00806204-2.2143418-.16048591-3.2714555-.49932742v-1.72181867c0-.66565394-.5396191-1.20527307-1.2052731-1.20527307-.6656539 0-1.205273.53961913-1.205273 1.20527307v28.32391713c-.4917969.1350406-.9304412.4174555-1.2569277.8092548l-11.3812214 13.5851493.9470003-1.1364003-6.2415927-5.8025289c-.5741707-.5335524-1.3631372-.7709925-2.1364137-.6429554s-1.4436057.6071035-1.8151602 1.2972464l-12.21630343 22.6246974c-.42224641.7795767-.40581444 1.7232566.04331677 2.4876603.4491312.7644037 1.26548104 1.2380857 2.15200204 1.2486862h68.87274682c.9291587-.0084363 1.7789907-.5253167 2.2138331-1.3464861.4348424-.8211693.3847728-1.8145841-.1304325-2.5878696zm-36.519774-54.44390634c1.0156027.23920261 2.0558922.35768003 3.0992736.35297283 2.9243909-.14382699 5.8085514-.74215232 8.5488297-1.77347323 2.2455177-.84485668 4.6045824-1.34974874 6.9991929-1.49798225 1.0641049-.0112462 2.1191195.19682613 3.0992736.61124563v10.45143936c-1.0156027-.2392026-2.0558922-.3576801-3.0992736-.3529729-2.9243909.143827-5.8085514.7421524-8.5488297 1.7734733-2.2382342.8549544-4.5914257 1.3714378-6.9819747 1.5324186-1.0641049.0112462-2.1191195-.1968261-3.0992736-.6112456v-10.48587574zm-26.5160075 58.29217114h.1291364zm-.78342753-.3960183.09470003.0688727zm.36158192.2324455.12913641.0774818zm-.94700027-4.5369922c-.47599001.6286721-.66649253 1.4281581-.52515469 2.2039279h-5.91444714l12.14743071-22.4955609 6.3018564 5.8541834zm0 3.6416465-.06026365-.0947zm-.23244552-.4132365-.05165456-.1033091zm-.18940005-.4907183v-.0516546zm46.48910415-.5337638h-43.9063761c-.1027993-.1645693-.1510064-.3573977-.1377455-.550982l23.976325-28.8921173 20.1452784 28.8318537c.0375418.2116504-.0054516.4296887-.1205273.6112456zm.6284638 2.5310734h.1205273zm.370191-.1205273.1119182-.0516545zm1.6701641-2.3933279c.1214642-.7062278-.0292767-1.4322455-.4218456-2.0317461l-7.4296475-10.6236212 1.015873 1.4635459 8.5402206-6.5601291 11.7600215 17.7347323h-13.4904493zm-.5423729 1.4291095v-.0516546z" fill="#fff"/></svg>

<?xml version="1.0" encoding="UTF-8"?>
<svg width="74px" height="64px" viewBox="0 0 74 64" version="1.1" xmlns="http://www.w3.org/2000/svg" xmlns:xlink="http://www.w3.org/1999/xlink">
    <!-- Generator: Sketch 51.3 (57544) - http://www.bohemiancoding.com/sketch -->
    <title>founded-icon</title>
    <desc>Created with Sketch.</desc>
    <defs></defs>
    <g id="Landing-Page" stroke="none" stroke-width="1" fill="none" fill-rule="evenodd">
        <path d="M73.4569585,60.0656443 L61.6194551,42.2103847 C61.2320518,41.6253658 60.6191819,41.2274139 59.9271559,41.1115322 C59.2351299,40.9956505 58.5260517,41.1722384 57.9691996,41.5991391 L49.4720244,48.1162228 L37.1351936,30.4589723 C37.031307,30.3179301 36.9130111,30.1880931 36.7822208,30.0715631 L36.7822208,18.8022599 C37.8393009,19.1412442 38.9436036,19.3097957 40.0536763,19.3015873 C45.2191323,19.3015873 50.3845883,15.9956955 55.5500443,15.9956955 C57.0584697,15.980413 58.5517148,16.2978746 59.9234638,16.9254775 C60.1196186,17.021042 60.3338313,17.0738615 60.5519276,17.0804412 C60.7490849,17.0929778 60.9413511,17.0157615 61.0750712,16.870341 C61.2087913,16.7249204 61.2696468,16.5268668 61.240655,16.3314501 C61.240655,11.9006367 61.240655,7.47269303 61.240655,3.04761905 C61.1936403,2.18512985 60.710033,1.40616503 59.9579001,0.981436642 C58.5808614,0.377237884 57.0877796,0.0833241505 55.5844807,0.120527307 C50.4190247,0.120527307 45.2535687,3.42641916 40.0881127,3.42641916 C38.9780506,3.4344812 37.8737709,3.26593325 36.8166572,2.92709174 L36.8166572,1.20527307 C36.8166572,0.539619134 36.2770381,0 35.6113841,0 C34.9457302,0 34.4061111,0.539619134 34.4061111,1.20527307 L34.4061111,29.5291902 C33.9143142,29.6642308 33.4756699,29.9466457 33.1491834,30.338445 L21.767962,43.9235943 L22.7149623,42.787194 L16.4733696,36.9846651 C15.8991989,36.4511127 15.1102324,36.2136726 14.3369559,36.3417097 C13.5636794,36.4697468 12.8933502,36.9488132 12.5217957,37.6389561 L0.305492273,60.2636535 C-0.116754137,61.0432302 -0.100322166,61.9869101 0.348809039,62.7513138 C0.797940244,63.5157175 1.61429008,63.9893995 2.50081108,64 L71.3735579,64 C72.3027166,63.9915637 73.1525486,63.4746833 73.587391,62.6535139 C74.0222334,61.8323446 73.9721638,60.8389298 73.4569585,60.0656443 Z M36.9371845,5.62173796 C37.9527872,5.86094057 38.9930767,5.97941799 40.0364581,5.97471079 C42.960849,5.8308838 45.8450095,5.23255847 48.5852878,4.20123756 C50.8308055,3.35638088 53.1898702,2.85148882 55.5844807,2.70325531 C56.6485856,2.69200911 57.7036002,2.90008144 58.6837543,3.31450094 L58.6837543,13.7659403 C57.6681516,13.5267377 56.6278621,13.4082602 55.5844807,13.4129674 C52.6600898,13.5567944 49.7759293,14.1551198 47.035651,15.1864407 C44.7974168,16.0413951 42.4442253,16.5578785 40.0536763,16.7188593 C38.9895714,16.7301055 37.9345568,16.5220332 36.9544027,16.1076137 L36.9544027,5.62173796 L36.9371845,5.62173796 Z M10.421177,63.9139091 L10.5503134,63.9139091 L10.421177,63.9139091 Z M9.63774947,63.5178908 L9.7324495,63.5867635 L9.63774947,63.5178908 Z M9.99933139,63.7503363 L10.1284678,63.8278181 L9.99933139,63.7503363 Z M9.05233112,59.2133441 C8.57634111,59.8420162 8.38583859,60.6415022 8.52717643,61.417272 L2.61272929,61.417272 L14.76016,38.9217111 L21.0620164,44.7758945 L9.05233112,59.2133441 Z M9.05233112,62.8549906 L8.99206747,62.7602906 L9.05233112,62.8549906 Z M8.8198856,62.4417541 L8.76823104,62.338445 L8.8198856,62.4417541 Z M8.63048555,61.9510358 L8.63048555,61.8993812 L8.63048555,61.9510358 Z M55.1195897,61.417272 L11.2132136,61.417272 C11.1104143,61.2527027 11.0622072,61.0598743 11.0754681,60.86629 L35.0517931,31.9741727 L55.1970715,60.8060264 C55.2346133,61.0176768 55.1916199,61.2357151 55.0765442,61.417272 L55.1195897,61.417272 Z M55.7480535,63.9483454 L55.8685808,63.9483454 L55.7480535,63.9483454 Z M56.1182445,63.8278181 L56.2301627,63.7761636 L56.1182445,63.8278181 Z M57.7884086,61.4344902 C57.9098728,60.7282624 57.7591319,60.0022447 57.366563,59.4027441 L49.9369155,48.7791229 L50.9527885,50.2426688 L59.4930091,43.6825397 L71.2530306,61.417272 L57.7625813,61.417272 L57.7884086,61.4344902 Z M57.2460357,62.8635997 L57.2460357,62.8119451 L57.2460357,62.8635997 Z" id="founded-icon" fill="#FFFFFF" fill-rule="nonzero"></path>
    </g>
</svg>
